packages/ffe-icons/icons/open/300/md/outdoor_garden.svg

<svg xmlns="http://www.w3.org/2000/svg" height="24" viewBox="0 -960 960 960" width="24"><path d="M90-130.001V-715l150-112.691 120 90 120-90 120 90 120-90L869.999-715v584.999H90.001ZM150-189.999h180.002V-685L240-752.693 149.999-685v495.001Zm240 0h180.002V-685L480-752.693 389.999-685v495.001Zm240 0h180.002V-685L720-752.693 629.999-685v495.001Z"/></svg>

<svg xmlns="http://www.w3.org/2000/svg" height="24" viewBox="0 -960 960 960" width="24"><path d="M90-130v-585l150-112.69 120 90 120-90 120 90 120-90L870-715v585H90Zm60-60h180v-495l-90-67.69L150-685v495Zm240 0h180v-495l-90-67.69L390-685v495Zm240 0h180v-495l-90-67.69L630-685v495Z"/></svg>
